X: 10252
Q: "Lento."
M: C
L: 1/8
K: G
(d/e/d/c/) !segno!|:\
d2 (cd) (ef) (ge) | (^c2 d2) {d}=c3 B |
(B2 A)B (cd) eg | {g}f4 e3 d |\
{d}c3 B (Ac) (Bd) | (dc) B2 (d^c) Hc2 |\
ee/g/ fe e2 d2 | AA/c/ BA (A2 G2) |]


